X:865
T:Mossy Banks, The
R:reel
Z:transcribed by Dave Marshall
M:C|
K:G
|: edBA ~G3A | BdAd BGEF | G2EG DEGA | BGdB A2Bd |
edBA ~G3A | BdAd BGEF | G2EG DEGB |1 AGAB G2Bd :|2 AGAB G4 |
|: dedc BGBd | e2af gfe2 | dedc BGBd | egfa g4 |
dedc BGBd | e2af gfef | d4 e4 | e~a3 g4 :|
